inst/assets/svg/wi-flood.svg

<?xml version="1.0" encoding="UTF-8"?>
<svg xmlns="http://www.w3.org/2000/svg" xmlns:xlink="http://www.w3.org/1999/xlink" width="30pt" height="30pt" viewBox="0 0 30 30" version="1.1">
<g id="surface241">
<path style=" stroke:none;fill-rule:nonzero;fill:rgb(0%,0%,0%);fill-opacity:1;" d="M 6.71875 20.761719 C 6.71875 20.710938 6.730469 20.640625 6.738281 20.550781 L 6.738281 15.789063 C 7.019531 16.28125 7.398438 16.679688 7.890625 16.980469 C 8.378906 17.28125 8.921875 17.429688 9.5 17.429688 C 10.089844 17.429688 10.628906 17.28125 11.121094 16.980469 C 11.609375 16.679688 11.988281 16.289063 12.269531 15.789063 C 12.539063 16.28125 12.929688 16.679688 13.421875 16.980469 C 13.910156 17.28125 14.449219 17.429688 15.039063 17.429688 C 15.621094 17.429688 16.160156 17.28125 16.648438 16.980469 C 17.140625 16.679688 17.519531 16.289063 17.800781 15.789063 C 18.078125 16.28125 18.46875 16.679688 18.949219 16.980469 C 19.441406 17.28125 19.96875 17.429688 20.550781 17.429688 C 21.128906 17.429688 21.671875 17.28125 22.160156 16.980469 C 22.648438 16.679688 23.039063 16.289063 23.308594 15.789063 L 23.308594 20.601563 C 23.308594 20.621094 23.308594 20.648438 23.308594 20.679688 C 23.308594 20.710938 23.308594 20.738281 23.308594 20.761719 C 23.308594 20.769531 23.308594 20.800781 23.308594 20.828125 C 23.308594 20.859375 23.308594 20.890625 23.308594 20.910156 C 23.28125 21.140625 23.179688 21.339844 23.011719 21.511719 C 22.839844 21.679688 22.640625 21.78125 22.410156 21.808594 C 22.390625 21.808594 22.359375 21.808594 22.328125 21.820313 C 22.300781 21.828125 22.269531 21.828125 22.25 21.828125 C 22.238281 21.828125 22.210938 21.828125 22.179688 21.820313 C 22.148438 21.808594 22.121094 21.808594 22.101563 21.808594 L 7.941406 21.808594 C 7.921875 21.808594 7.898438 21.808594 7.859375 21.820313 C 7.828125 21.828125 7.800781 21.828125 7.789063 21.828125 C 7.769531 21.828125 7.738281 21.828125 7.710938 21.820313 C 7.679688 21.808594 7.648438 21.808594 7.640625 21.808594 C 7.421875 21.78125 7.21875 21.691406 7.058594 21.53125 C 6.898438 21.371094 6.789063 21.191406 6.738281 20.96875 C 6.730469 20.878906 6.71875 20.808594 6.71875 20.761719 Z M 12.230469 9.671875 C 12.230469 9.511719 12.289063 9.371094 12.398438 9.25 L 14.609375 7.03125 L 14.640625 7.011719 C 14.648438 7.011719 14.648438 7.011719 14.648438 7 C 14.660156 7 14.660156 7 14.660156 6.988281 C 14.671875 6.988281 14.671875 6.988281 14.671875 6.980469 L 14.679688 6.980469 C 14.691406 6.980469 14.691406 6.980469 14.691406 6.96875 C 14.691406 6.960938 14.691406 6.960938 14.699219 6.949219 L 14.71875 6.949219 L 14.730469 6.941406 L 14.738281 6.941406 L 14.75 6.929688 L 14.761719 6.929688 L 14.769531 6.921875 L 14.78125 6.921875 C 14.789063 6.910156 14.789063 6.910156 14.800781 6.910156 L 14.808594 6.910156 C 14.808594 6.898438 14.820313 6.898438 14.828125 6.898438 C 14.839844 6.890625 14.839844 6.890625 14.851563 6.890625 L 14.890625 6.871094 L 14.898438 6.871094 C 14.910156 6.871094 14.910156 6.871094 14.910156 6.859375 L 14.980469 6.859375 L 14.988281 6.851563 L 15.109375 6.851563 C 15.121094 6.851563 15.121094 6.851563 15.128906 6.859375 L 15.191406 6.859375 C 15.191406 6.871094 15.191406 6.871094 15.199219 6.871094 L 15.21875 6.871094 C 15.230469 6.878906 15.238281 6.890625 15.25 6.890625 L 15.269531 6.898438 L 15.289063 6.898438 L 15.300781 6.910156 L 15.308594 6.910156 L 15.320313 6.921875 C 15.328125 6.921875 15.328125 6.921875 15.328125 6.929688 L 15.351563 6.929688 C 15.359375 6.929688 15.359375 6.929688 15.359375 6.929688 C 15.359375 6.929688 15.359375 6.929688 15.371094 6.929688 C 15.378906 6.941406 15.378906 6.941406 15.390625 6.941406 C 15.390625 6.949219 15.390625 6.960938 15.398438 6.960938 L 15.410156 6.96875 L 15.429688 6.96875 L 15.441406 6.980469 L 15.410156 7 L 17.660156 9.25 C 17.78125 9.371094 17.839844 9.511719 17.839844 9.671875 C 17.839844 9.828125 17.78125 9.96875 17.660156 10.078125 C 17.550781 10.199219 17.410156 10.261719 17.25 10.261719 C 17.089844 10.261719 16.949219 10.199219 16.839844 10.078125 L 15.609375 8.859375 L 15.609375 15.761719 C 15.609375 15.921875 15.550781 16.050781 15.441406 16.160156 C 15.328125 16.269531 15.191406 16.328125 15.03125 16.328125 C 14.871094 16.328125 14.730469 16.269531 14.609375 16.160156 C 14.488281 16.050781 14.441406 15.910156 14.441406 15.761719 L 14.441406 8.859375 L 13.21875 10.078125 C 13.101563 10.199219 12.960938 10.261719 12.800781 10.261719 C 12.640625 10.261719 12.5 10.199219 12.390625 10.078125 C 12.289063 9.96875 12.230469 9.828125 12.230469 9.671875 Z M 12.230469 9.671875 "/>
</g>
</svg>

<?xml version="1.0" encoding="utf-8"?>
<!-- Generator: Adobe Illustrator 22.0.1, SVG Export Plug-In . SVG Version: 6.00 Build 0)  -->
<svg version="1.1" id="Layer_1" xmlns="http://www.w3.org/2000/svg" xmlns:xlink="http://www.w3.org/1999/xlink" x="0px" y="0px"
	 viewBox="0 0 30 30" style="enable-background:new 0 0 30 30;" xml:space="preserve">
<path d="M6.72,20.76c0-0.05,0.01-0.12,0.02-0.21v-4.76c0.28,0.49,0.66,0.89,1.15,1.19c0.49,0.3,1.03,0.45,1.61,0.45
	c0.59,0,1.13-0.15,1.62-0.45c0.49-0.3,0.87-0.69,1.15-1.19c0.27,0.49,0.66,0.89,1.15,1.19c0.49,0.3,1.03,0.45,1.62,0.45
	c0.58,0,1.12-0.15,1.61-0.45c0.49-0.3,0.87-0.69,1.15-1.19c0.28,0.49,0.67,0.89,1.15,1.19c0.49,0.3,1.02,0.45,1.6,0.45
	c0.58,0,1.12-0.15,1.61-0.45c0.49-0.3,0.88-0.69,1.15-1.19v4.81c0,0.02,0,0.05,0,0.08c0,0.03,0,0.06,0,0.08c0,0.01,0,0.04,0,0.07
	s0,0.06,0,0.08c-0.03,0.23-0.13,0.43-0.3,0.6c-0.17,0.17-0.37,0.27-0.6,0.3c-0.02,0-0.05,0-0.08,0.01
	c-0.03,0.01-0.06,0.01-0.08,0.01c-0.01,0-0.04,0-0.07-0.01c-0.03-0.01-0.06-0.01-0.08-0.01H7.94c-0.02,0-0.04,0-0.08,0.01
	c-0.03,0.01-0.06,0.01-0.07,0.01c-0.02,0-0.05,0-0.08-0.01c-0.03-0.01-0.06-0.01-0.07-0.01c-0.22-0.03-0.42-0.12-0.58-0.28
	c-0.16-0.16-0.27-0.34-0.32-0.56C6.73,20.88,6.72,20.81,6.72,20.76z M12.23,9.67c0-0.16,0.06-0.3,0.17-0.42l2.21-2.22l0.03-0.02
	c0.01,0,0.01,0,0.01-0.01c0.01,0,0.01,0,0.01-0.01c0.01,0,0.01,0,0.01-0.01h0.01c0.01,0,0.01,0,0.01-0.01s0-0.01,0.01-0.02h0.02
	l0.01-0.01h0.01l0.01-0.01h0.01l0.01-0.01h0.01c0.01-0.01,0.01-0.01,0.02-0.01h0.01c0-0.01,0.01-0.01,0.02-0.01
	c0.01-0.01,0.01-0.01,0.02-0.01l0.04-0.02h0.01c0.01,0,0.01,0,0.01-0.01h0.07l0.01-0.01h0.12c0.01,0,0.01,0,0.02,0.01h0.06
	c0,0.01,0,0.01,0.01,0.01h0.02c0.01,0.01,0.02,0.02,0.03,0.02l0.02,0.01h0.02l0.01,0.01h0.01l0.01,0.01c0.01,0,0.01,0,0.01,0.01
	h0.02c0.01,0,0.01,0,0.01,0c0,0,0,0,0.01,0c0.01,0.01,0.01,0.01,0.02,0.01c0,0.01,0,0.02,0.01,0.02l0.01,0.01h0.02l0.01,0.01
	L15.41,7l0.01,0.01l0.02,0.02l2.22,2.22c0.12,0.12,0.18,0.26,0.18,0.42c0,0.16-0.06,0.3-0.18,0.41c-0.11,0.12-0.25,0.18-0.41,0.18
	c-0.16,0-0.3-0.06-0.41-0.18l-1.23-1.22v6.9c0,0.16-0.06,0.29-0.17,0.4c-0.11,0.11-0.25,0.17-0.41,0.17c-0.16,0-0.3-0.06-0.42-0.17
	c-0.12-0.11-0.17-0.25-0.17-0.4v-6.9l-1.22,1.22c-0.12,0.12-0.26,0.18-0.42,0.18c-0.16,0-0.3-0.06-0.41-0.18
	C12.29,9.97,12.23,9.83,12.23,9.67z"/>
</svg>
